X: 1
T: Down In The Meadow
M: 4/4
L: 1/8
R: reel
K: Amaj
e2ef edcd |e2dc B2AB |c2cd cBAB | cBAG A2 A2 :|
e2 A2 A2 f2 | e2 A2 A2 AB | c2cd cBAB | cBAG A2 A2 :|
